img/servicios.svg

<?xml version="1.0" encoding="UTF-8" standalone="no"?>
<svg xmlns="http://www.w3.org/2000/svg" viewBox="0 0 582.9 95.4">
 <title>Recurso 7</title>
 <g id="e02028e1-3315-43a8-a1d0-60519492fda8" data-name="Capa 2">
  <g id="fc3cbed6-8f53-4f72-a279-7d5502bc76fa" data-name="Capa 1">
   <g stroke="#fff" stroke-miterlimit="10" fill="none">
    <path d="m54.5 22.5a1.8 1.8 0 0 1 -2.1 1.6 89.4 89.4 0 0 0 -16.5 -2.1c-9-0.1-10.2 5.6-10.2 7.2s1.1 7.6 11.8 10.3 22.7 12.3 22.7 29.5-9.8 25.9-34.5 25.9a156.6 156.6 0 0 1 -19.1 -1.1 1.7 1.7 0 0 1 -1.5 -1.9l1.7-17.6a1.8 1.8 0 0 1 2.1 -1.6 81.9 81.9 0 0 0 16 2.1c8.9 0.1 10.1-5.6 10.1-7.2s-1-7.6-11.8-10.3-22.7-12.3-22.7-29.5 13.4-25.9 34.5-25.9c7.7 0 16.1 0.7 19.6 1.1a1.8 1.8 0 0 1 1.6 1.9z"/>
    <path d="m62.9 90.5v-86.9a1.7 1.7 0 0 1 1.8 -1.7h53.1a1.7 1.7 0 0 1 1.8 1.7v18.1a1.8 1.8 0 0 1 -1.8 1.7h-29.5v12.9h25.5a1.8 1.8 0 0 1 1.7 1.8v18a1.7 1.7 0 0 1 -1.7 1.8h-25.5v12.8h29.5a1.8 1.8 0 0 1 1.8 1.8v18a1.8 1.8 0 0 1 -1.8 1.8h-53.1a1.8 1.8 0 0 1 -1.8 -1.8z"/>
    <path d="m194.2 91.8a1.8 1.8 0 0 1 -1.8 1.8h-23.4a1.8 1.8 0 0 1 -1.8 -1.7c-0.5-14.8-7.9-22.4-19.6-23.2v23.2a1.8 1.8 0 0 1 -1.8 1.7h-21.8a1.8 1.8 0 0 1 -1.8 -1.7v-88.3a1.7 1.7 0 0 1 1.8 -1.7h42.9c14.8 0 26.8 10.3 26.8 32.3 0 13-4.1 21.9-10.6 27 6.6 7.5 10.7 17.8 11.1 30.6zm-46.6-47.1a0.9 0.9 0 0 0 0.9 0.8h10.3c5.2 0 9.3-4 9.3-10.5s-4.1-10.4-9.3-10.4h-10.3a0.9 0.9 0 0 0 -0.9 0.8z"/>
    <path d="m254.6 3a1.6 1.6 0 0 1 1.6 -1.1h22.2a1.7 1.7 0 0 1 1.8 1.7v0.6a1.3 1.3 0 0 1 -0.1 0.6l-32 86.3a1.8 1.8 0 0 1 -1.7 1.2h-22.2a1.8 1.8 0 0 1 -1.7 -1.2l-32-86.3a1.3 1.3 0 0 1 -0.1 -0.6v-0.6a1.7 1.7 0 0 1 1.8 -1.7h22.2a1.6 1.6 0 0 1 1.6 1.1l19.3 51.9z"/>
    <path d="m284.6 92.3a1.8 1.8 0 0 1 -1.8 -1.8v-86.9a1.7 1.7 0 0 1 1.8 -1.7h21.8a1.7 1.7 0 0 1 1.8 1.7v86.9a1.8 1.8 0 0 1 -1.8 1.8z"/>
    <path d="m395 74.8a1.8 1.8 0 0 1 0.3 2.5 47.3 47.3 0 1 1 -37 -76.8 47.3 47.3 0 0 1 36.9 17.6 1.6 1.6 0 0 1 -0.2 2.4l-17.5 13.9a1.7 1.7 0 0 1 -2.3 -0.2c-4.1-4.6-10.4-8.1-16.9-8.1a21.6 21.6 0 1 0 0 43.2c6.5 0 12.9-3.5 16.9-8.1a1.7 1.7 0 0 1 2.4 -0.2z"/>
    <path d="m400.2 92.3a1.8 1.8 0 0 1 -1.8 -1.8v-86.9a1.7 1.7 0 0 1 1.8 -1.7h21.8a1.7 1.7 0 0 1 1.8 1.7v86.9a1.8 1.8 0 0 1 -1.8 1.8z"/>
    <path d="m522.2 47.7c0 26.1-21.4 47.2-47.9 47.2s-47.9-21.1-47.9-47.2 21.5-47.2 47.9-47.2 47.9 21.2 47.9 47.2zm-26 0a21.9 21.9 0 1 0 -21.9 21.6 21.8 21.8 0 0 0 21.9 -21.6z"/>
    <path d="m576.6 22.5a1.7 1.7 0 0 1 -2.1 1.6 89.4 89.4 0 0 0 -16.5 -2.1c-8.9-0.1-10.1 5.6-10.1 7.2s1 7.6 11.7 10.3a29.7 29.7 0 0 1 22.8 29.5c0 17.2-9.8 25.9-34.5 25.9a158.7 158.7 0 0 1 -19.2 -1.1 1.8 1.8 0 0 1 -1.5 -1.9l1.7-17.6a1.8 1.8 0 0 1 2.1 -1.6 83.1 83.1 0 0 0 16 2.1c9 0.1 10.1-5.6 10.1-7.2s-1-7.6-11.7-10.3a29.7 29.7 0 0 1 -22.8 -29.5c0-17.2 13.4-25.9 34.5-25.9 7.8 0 16.1 0.7 19.7 1.1a1.8 1.8 0 0 1 1.5 1.9z"/>
   </g>
  </g>
 </g>
</svg>

<svg xmlns="http://www.w3.org/2000/svg" viewBox="0 0 582.9 95.4">
  <title>Recurso 7</title>
  <g id="e02028e1-3315-43a8-a1d0-60519492fda8" data-name="Capa 2">
    <g id="fc3cbed6-8f53-4f72-a279-7d5502bc76fa" data-name="Capa 1">
      <g>
        <path d="M54.5,22.5a1.8,1.8,0,0,1-2.1,1.6A89.4,89.4,0,0,0,35.9,22c-9-.1-10.2,5.6-10.2,7.2s1.1,7.6,11.8,10.3S60.2,51.8,60.2,69,50.4,94.9,25.7,94.9A156.6,156.6,0,0,1,6.6,93.8a1.7,1.7,0,0,1-1.5-1.9L6.8,74.3a1.8,1.8,0,0,1,2.1-1.6,81.9,81.9,0,0,0,16,2.1c8.9.1,10.1-5.6,10.1-7.2S34,60,23.2,57.3.5,45,.5,27.8,13.9,1.9,35,1.9c7.7,0,16.1.7,19.6,1.1a1.8,1.8,0,0,1,1.6,1.9Z" style="fill: none;stroke: #fff;stroke-miterlimit: 10"/>
        <path d="M62.9,90.5V3.6a1.7,1.7,0,0,1,1.8-1.7h53.1a1.7,1.7,0,0,1,1.8,1.7V21.7a1.8,1.8,0,0,1-1.8,1.7H88.3V36.3h25.5a1.8,1.8,0,0,1,1.7,1.8v18a1.7,1.7,0,0,1-1.7,1.8H88.3V70.7h29.5a1.8,1.8,0,0,1,1.8,1.8v18a1.8,1.8,0,0,1-1.8,1.8H64.7A1.8,1.8,0,0,1,62.9,90.5Z" style="fill: none;stroke: #fff;stroke-miterlimit: 10"/>
        <path d="M194.2,91.8a1.8,1.8,0,0,1-1.8,1.8H169a1.8,1.8,0,0,1-1.8-1.7c-.5-14.8-7.9-22.4-19.6-23.2V91.9a1.8,1.8,0,0,1-1.8,1.7H124a1.8,1.8,0,0,1-1.8-1.7V3.6A1.7,1.7,0,0,1,124,1.9h42.9c14.8,0,26.8,10.3,26.8,32.3,0,13-4.1,21.9-10.6,27C189.7,68.7,193.8,79,194.2,91.8ZM147.6,44.7a.9.9,0,0,0,.9.8h10.3c5.2,0,9.3-4,9.3-10.5s-4.1-10.4-9.3-10.4H148.5a.9.9,0,0,0-.9.8Z" style="fill: none;stroke: #fff;stroke-miterlimit: 10"/>
        <path d="M254.6,3a1.6,1.6,0,0,1,1.6-1.1h22.2a1.7,1.7,0,0,1,1.8,1.7v.6a1.3,1.3,0,0,1-.1.6l-32,86.3a1.8,1.8,0,0,1-1.7,1.2H224.2a1.8,1.8,0,0,1-1.7-1.2l-32-86.3a1.3,1.3,0,0,1-.1-.6V3.6a1.7,1.7,0,0,1,1.8-1.7h22.2A1.6,1.6,0,0,1,216,3l19.3,51.9Z" style="fill: none;stroke: #fff;stroke-miterlimit: 10"/>
        <path d="M284.6,92.3a1.8,1.8,0,0,1-1.8-1.8V3.6a1.7,1.7,0,0,1,1.8-1.7h21.8a1.7,1.7,0,0,1,1.8,1.7V90.5a1.8,1.8,0,0,1-1.8,1.8Z" style="fill: none;stroke: #fff;stroke-miterlimit: 10"/>
        <path d="M395,74.8a1.8,1.8,0,0,1,.3,2.5A47.3,47.3,0,1,1,358.3.5a47.3,47.3,0,0,1,36.9,17.6,1.6,1.6,0,0,1-.2,2.4L377.5,34.4a1.7,1.7,0,0,1-2.3-.2c-4.1-4.6-10.4-8.1-16.9-8.1a21.6,21.6,0,1,0,0,43.2c6.5,0,12.9-3.5,16.9-8.1a1.7,1.7,0,0,1,2.4-.2Z" style="fill: none;stroke: #fff;stroke-miterlimit: 10"/>
        <path d="M400.2,92.3a1.8,1.8,0,0,1-1.8-1.8V3.6a1.7,1.7,0,0,1,1.8-1.7H422a1.7,1.7,0,0,1,1.8,1.7V90.5a1.8,1.8,0,0,1-1.8,1.8Z" style="fill: none;stroke: #fff;stroke-miterlimit: 10"/>
        <path d="M522.2,47.7c0,26.1-21.4,47.2-47.9,47.2s-47.9-21.1-47.9-47.2S447.9.5,474.3.5,522.2,21.7,522.2,47.7Zm-26,0a21.9,21.9,0,1,0-21.9,21.6A21.8,21.8,0,0,0,496.2,47.7Z" style="fill: none;stroke: #fff;stroke-miterlimit: 10"/>
        <path d="M576.6,22.5a1.7,1.7,0,0,1-2.1,1.6A89.4,89.4,0,0,0,558,22c-8.9-.1-10.1,5.6-10.1,7.2s1,7.6,11.7,10.3A29.7,29.7,0,0,1,582.4,69c0,17.2-9.8,25.9-34.5,25.9a158.7,158.7,0,0,1-19.2-1.1,1.8,1.8,0,0,1-1.5-1.9l1.7-17.6a1.8,1.8,0,0,1,2.1-1.6,83.1,83.1,0,0,0,16,2.1c9,.1,10.1-5.6,10.1-7.2s-1-7.6-11.7-10.3a29.7,29.7,0,0,1-22.8-29.5c0-17.2,13.4-25.9,34.5-25.9,7.8,0,16.1.7,19.7,1.1a1.8,1.8,0,0,1,1.5,1.9Z" style="fill: none;stroke: #fff;stroke-miterlimit: 10"/>
      </g>
    </g>
  </g>
</svg>
